X:0397
M:3/4
L:1/8
Q:3/4=120 "Brisk"
K:G
    Bcd2e2|d2B2g2|   Tf4  A2 |
    Bcd2e2|d2B2g2|    edcBAG |\
    c3 de2|d2B2g2|   Tf4  A2:|
    g2G2B2|g2agfe|    d2cBAG |\
    g2G2B2|g2agfe| {e}f4  A2 |
    g2G2B2|g2agfe|    dgdBAG |\
    c3 de2|d2B2g2|{g}Tf4  A2:|

